src/assets/duotone/BoxTime.svg

<svg width="24" height="24" viewBox="0 0 24 24"  xmlns="http://www.w3.org/2000/svg">
<path opacity="0.4" d="M19.3499 5.65995L13.0599 2.27C12.3999 1.91 11.5999 1.91 10.9299 2.27L4.63992 5.65995C4.17992 5.90995 3.8999 6.39998 3.8999 6.93998C3.8999 7.47998 4.17992 7.96995 4.63992 8.21995L10.9299 11.61C11.2599 11.79 11.6299 11.88 11.9899 11.88C12.3599 11.88 12.7199 11.79 13.0499 11.61L19.3399 8.21995C19.7999 7.96995 20.0799 7.47998 20.0799 6.93998C20.0899 6.39998 19.8099 5.90995 19.3499 5.65995Z" />
<path opacity="0.4" d="M9.90021 12.7899L4.0502 9.85989C3.6002 9.62989 3.08021 9.65989 2.65021 9.91989C2.22021 10.1799 1.97021 10.6399 1.97021 11.1399V16.6699C1.97021 17.6299 2.5002 18.4899 3.3602 18.9199L9.21021 21.8399C9.4102 21.9399 9.63022 21.9899 9.85022 21.9899C10.1102 21.9899 10.3702 21.9199 10.6002 21.7699C11.0302 21.5099 11.2802 21.0499 11.2802 20.5499V15.0199C11.2902 14.0799 10.7602 13.2199 9.90021 12.7899Z" />
<path opacity="0.4" d="M22.03 11.1502V15.7401C22.02 15.7301 22.01 15.7101 22 15.7001C22 15.6901 21.99 15.6801 21.98 15.6701C21.94 15.6101 21.89 15.5501 21.84 15.5001C21.83 15.4901 21.82 15.4702 21.81 15.4602C21 14.5602 19.81 14.0001 18.5 14.0001C17.24 14.0001 16.09 14.5201 15.27 15.3601C14.48 16.1701 14 17.2801 14 18.5001C14 19.3401 14.24 20.1401 14.65 20.8201C14.82 21.1101 15.03 21.3701 15.26 21.6101L14.79 21.8501C14.59 21.9501 14.37 22.0001 14.15 22.0001C13.89 22.0001 13.63 21.9302 13.39 21.7802C12.97 21.5202 12.71 21.0601 12.71 20.5601V15.0401C12.71 14.0801 13.24 13.2201 14.1 12.7901L19.95 9.87013C20.4 9.64013 20.92 9.66012 21.35 9.93012C21.77 10.1901 22.03 10.6502 22.03 11.1502Z" />
<path d="M21.98 15.65C21.16 14.64 19.91 14 18.5 14C17.44 14 16.46 14.37 15.69 14.99C14.65 15.81 14 17.08 14 18.5C14 19.91 14.64 21.16 15.65 21.98C16.42 22.62 17.42 23 18.5 23C19.64 23 20.67 22.57 21.47 21.88C22.4 21.05 23 19.85 23 18.5C23 17.42 22.62 16.42 21.98 15.65ZM19.53 18.78C19.53 19.04 19.39 19.29 19.17 19.42L17.76 20.26C17.64 20.33 17.51 20.37 17.37 20.37C17.12 20.37 16.87 20.24 16.73 20.01C16.52 19.65 16.63 19.19 16.99 18.98L18.03 18.36V17.1C18.03 16.69 18.37 16.35 18.78 16.35C19.19 16.35 19.53 16.69 19.53 17.1V18.78Z" />
</svg>

<?xml version="1.0" encoding="UTF-8"?>
<svg width="24" height="24" viewBox="0 0 24 24" xmlns="http://www.w3.org/2000/svg">
 <path d="m19.35 5.66-6.29-3.39c-0.66-0.36-1.46-0.36-2.13 0l-6.29 3.39c-0.46 0.25-0.74002 0.74003-0.74002 1.28s0.28002 1.03 0.74002 1.28l6.29 3.39c0.33 0.18 0.7 0.27 1.06 0.27 0.37 0 0.73-0.09 1.06-0.27l6.29-3.39c0.46-0.25 0.74-0.73997 0.74-1.28 0.01-0.54-0.27-1.03-0.73-1.28z" opacity=".4"/>
 <path d="m9.9002 12.79-5.85-2.93c-0.45-0.23-0.96999-0.2-1.4 0.06-0.43 0.26001-0.68 0.72001-0.68 1.22v5.53c0 0.96 0.52999 1.82 1.39 2.25l5.85 2.92c0.19999 0.1 0.42001 0.15 0.64001 0.15 0.25998 0 0.51998-0.07 0.74998-0.22 0.43-0.26 0.68-0.72 0.68-1.22v-5.53c0.01-0.94-0.52-1.8-1.38-2.23z" opacity=".4"/>
 <path d="m22.03 11.15v4.5899c-0.01-0.01-0.02-0.03-0.03-0.04 0-0.01-0.01-0.02-0.02-0.03-0.04-0.06-0.09-0.12-0.14-0.17-0.01-0.01-0.02-0.0299-0.03-0.0399-0.81-0.9-2-1.4601-3.31-1.4601-1.26 0-2.41 0.52-3.23 1.36-0.79 0.81-1.27 1.92-1.27 3.14 0 0.84 0.24 1.64 0.65 2.32 0.17 0.29 0.38 0.55 0.61 0.79l-0.47 0.24c-0.2 0.1-0.42 0.15-0.64 0.15-0.26 0-0.52-0.0699-0.76-0.2199-0.42-0.26-0.68-0.7201-0.68-1.2201v-5.52c0-0.96 0.53-1.82 1.39-2.25l5.85-2.92c0.45-0.23 0.97-0.21001 1.4 0.05999 0.42 0.25998 0.68 0.72008 0.68 1.2201z" opacity=".4"/>
 <path d="m21.98 15.65c-0.82-1.01-2.07-1.65-3.48-1.65-1.06 0-2.04 0.37-2.81 0.99-1.04 0.82-1.69 2.09-1.69 3.51 0 1.41 0.64 2.66 1.65 3.48 0.77 0.64 1.77 1.02 2.85 1.02 1.14 0 2.17-0.43 2.97-1.12 0.93-0.83 1.53-2.03 1.53-3.38 0-1.08-0.38-2.08-1.02-2.85zm-2.45 3.13c0 0.26-0.14 0.51-0.36 0.64l-1.41 0.84c-0.12 0.07-0.25 0.11-0.39 0.11-0.25 0-0.5-0.13-0.64-0.36-0.21-0.36-0.1-0.82 0.26-1.03l1.04-0.62v-1.26c0-0.41 0.34-0.75 0.75-0.75s0.75 0.34 0.75 0.75v1.68z"/>
</svg>
